X:560
T: "Das Stelldichein"
N: Z1240
O: Europa, Mitteleuropa, Oesterreich
R: Liebes - Lied
M: 3/8
L: 1/8
K: D
FFF | GFG | A3
AdF | AGE | D3
AdF | AGD | GBD | GFD
FFF | GFG | A3
AdF | AGE | D3

